X: 446
T: Bumblebee in a Jug
B: jims roots
M:4/4
L:1/8
R: reel
Q: 1/4=100
K:C
V:1 
|: "C"C2CE G3c | "F"AFAc BGAB | "C"c2c2 eged | "G"Bded BGG2 :|
   "C"C2CE G3c | "F"AFAc BGAB | "C"c2c2 ecdc |[M:6/4] "G"BGAB "C"c2cB c2c2 :|
|:[M:4/4]"C"EFED EFED | EFED CB,A,G, | "F"A,B,A,B, A,B,CE | DCDE DCA,C |
         "C"E4 E3D | EFED CB,A,G, | "F"A,B,CD ECDC |[M:6/4] "G"B,G,A,B, "C"C2CB, C2C2 :|
|:[M:4/4] "C"eged eged | eged cBAG | "F"ABAG ABAG | EGAB AGE2 |
         "C"e4 e3d | egec dcAF | "F"GAcd ecdc |[M:6/4]"G"BGAB "C"c2cB c2c2 :|
% abcbook-tune_id 6298c245e0a664da0c0f74e2


% abcbook-boost 0
% abcbook-tablature 
% abcbook-transpose 
% abcbook-lastupdated 1654178373573
% abcbook-soundfonts 
% abcbook-repeats 1


